X: 40859
T: Treasures Money Can't Buy, The
R: jig
M: 6/8
K: Bminor
Bed BAF|AdF EFA|Bed ~B3|def g/f/ed|
Bed BAF|AdF EFA|EFA AFE|DFA B2 A:|
|:Bdf e2 d|faf edB|BAF dBF|BAF EFA|
Bdf e2 d|faf edB|BAF dBF|1 EFA B2 A:|2 EFA ~B3||

